assets/img/HM_Logo_kein_Weissraum_rot_RGB.svg

<svg viewBox="0 0 116.93 42.52" xmlns="http://www.w3.org/2000/svg"><g fill="#fc5555"><path d="m95.67 5.31 15.94-5.31 5.32 15.94-16 5.32z"/><path d="m30.31 18.76h-25.19v-18.76h-5.12v42.52h5.12v-19.47h25.19v19.47h5.12v-42.52h-5.12z"/><path d="m64 35.85h-.12l-13.44-35.85h-7.92v42.52h4.88v-37.28h.12l14.15 37.28h4.16l14.17-37.28h.12v37.28h4.88v-42.52h-7.58z"/></g></svg>

<svg id="Ebene_1" data-name="Ebene 1" xmlns="http://www.w3.org/2000/svg" viewBox="0 0 116.93 42.52"><defs><style>.cls-1{fill:#fc5555;}</style></defs><title>Zeichenfläche 2</title><path class="cls-1" d="M95.67,5.31,111.61,0l5.32,15.94-16,5.32Z"/><path class="cls-1" d="M30.31,18.76H5.12V0H0V42.52H5.12V23.05H30.31V42.52h5.12V0H30.31Z"/><path class="cls-1" d="M64,35.85h-.12L50.44,0H42.52V42.52H47.4V5.24h.12L61.67,42.52h4.16L80,5.24h.12V42.52H85V0H77.42Z"/></svg>
